packages/ui-icons/src/Service-logos/24/VK.svg

<svg viewBox="0 0 32 32" fill="none" xmlns="http://www.w3.org/2000/svg">
<path d="M16 28C22.6274 28 28 22.6274 28 16C28 9.37258 22.6274 4 16 4C9.37258 4 4 9.37258 4 16C4 22.6274 9.37258 28 16 28Z" fill="#0077FF"/>
<path d="M16.6252 20.5C11.842 20.5 9.11368 17.497 9 12.5H11.396C11.4747 16.1677 13.2411 17.7212 14.6402 18.0415V12.5H16.8963V15.6632C18.278 15.527 19.7295 14.0856 20.2192 12.5H22.4753C22.2908 13.3223 21.923 14.1009 21.3948 14.7871C20.8667 15.4733 20.1896 16.0524 19.406 16.488C20.2807 16.886 21.0534 17.4494 21.6729 18.141C22.2924 18.8326 22.7447 19.6366 23 20.5H20.5166C20.2874 19.7501 19.8216 19.0787 19.1776 18.5702C18.5336 18.0616 17.74 17.7384 16.8963 17.6411V20.5H16.6252Z" fill="white"/>
</svg>

<svg viewBox="0 0 32 32" fill="none" xmlns="http://www.w3.org/2000/svg"><path d="M16 28c6.627 0 12-5.373 12-12S22.627 4 16 4 4 9.373 4 16s5.373 12 12 12Z" fill="#07F"/><path d="M16.625 20.5c-4.783 0-7.511-3.003-7.625-8h2.396c.079 3.668 1.845 5.221 3.244 5.541V12.5h2.256v3.163c1.382-.136 2.834-1.577 3.323-3.163h2.256a5.85 5.85 0 0 1-1.08 2.287 6.47 6.47 0 0 1-1.989 1.701 6.842 6.842 0 0 1 2.267 1.653A6.155 6.155 0 0 1 23 20.5h-2.483a3.933 3.933 0 0 0-1.34-1.93 4.518 4.518 0 0 0-2.28-.929V20.5h-.272Z" fill="#fff"/></svg>
